!!!!SEGMENT: pl-kk--kk-i-293--001_anonim--venit-caeli-nuntius.krn
!!!cenid: 17xx:2044
!!!COM: Anonim
!!!COM-rismid: pe30004985
!!!CDT:
!!!CNT:
!!!OTL: Venit caeli nuntius
!!!PDT:
!!!AGN: Sacred
!!!SMS-siglum: PL-Kk
!!!SMS-shelfmark: Kk.I.293
!!!SMS-shelfwork: 001 W
!!!SMS-variant:
!!!SMS-altvar:
!!!NIFC-rismid: 1001144447
!!!URL-scan: http://repozytorium.nifc.pl/skany/pl-kk-nut--i-293
!!!ONB-nifc: UWAGA: utwory w zbiorze: 1. Venit caeli nuntius, 2. Surgens Jesus
**kern	**text
*Ivox	*
*I"Voce	*
*I'V.	*
*clefF4	*
*k[]	*
*C:	*
*M2/1	*
*met(c|)	*
=1-	=1-
!LO:SIC:t:v=utwór zrobiony zgodnie z instrukcją z komentarza http&colon;//git.nifc.pl/transkrypcje/popc2-transkrypcje/issues/234#issuecomment-3429	!
!LO:TX:t=Prosa de Adventu Domini.	!
1C/	Ve-
1.F\	-nit
=2-	=2-
.	.
!LO:TX:t=P:problem:kreska pseudotaktowa	!
2D/	Coe-
1C/	-li
=3-	=3-
2.D/	nun-
4C/	.
4AA/	.
4BB/	.
2C/	.
=4-	=4-
2GG/	.
2BB/	-ti-
!LO:TX:t=P:problem:kreska pseudotaktowa	!
1AA/	-us
=5-	=5-
*2\right	*
2A\	ve-
2B-X\	-nit
2.A\	miſ-
8G\L	.
8F\J	.
=6-	=6-
1E\	.
1D\	.
=7-	=7-
!LO:TX:t=P:problem:kreska pseudotaktowa	!
1GG/	-sus
2r	.
2AA/	coe-
=8-	=8-
2BB/	.
2C/	.
1D\	.
=9-	=9-
2.C/	.
!LO:SIC:v:custos:F	!
!LO:TX:t=P:problem:kreska pseudotaktowa	!
4C/	-li
!!LO:LB:g=original
2F\	tus,
1F\	ad
=10-	=10-
.	.
2E\	Ma-
2.F\	-ri-
4E\	.
=11-	=11-
1D\	.
!LO:TX:t=P:problem:kreska pseudotaktowa	!
1C/	-am
=12-	=12-
2.D/	Vir-
4C/	.
4AA/	.
4BB/	.
!LO:TX:t=P:problem:kreska pseudotaktowa	!
2C/	.
=13-	=13-
2BB-X/	.
2GG/	.
2AA/	-gi-
2D;/	-nem.
=14||-	=14||-
*M2/1	*
*met(c|)	*
1r	.
2.A\	Con-
4G\	-so-
=15-	=15-
2F\	-la-
2E\	.
2D/	.
2C/	.
=16-	=16-
1BB/	.
!LO:TX:t=P:problem:kreska pseudotaktowa	!
1AA/	-tur
=17-	=17-
2.E\	vir-
4E\	-gi-
!LO:TX:t=P:problem:kreska pseudotaktowa	!
1A\	-nem
!!LO:LB:g=original
=18-	=18-
2F\	pa-
2G\	.
1C/	.
=19-	=19-
2.F\	.
4F\	-vi-
1C/	-dam
=20-	=20-
2r	.
2G\	ob
2D\	Nun-
2F\	.
=21-	=21-
1E\	.
2.D/	.
4C/	.
=22-	=22-
4AA/	.
4BB/	.
2C/	.
2.G\	.
4G\	-ci-
=23-	=23-
!LO:TX:t=P:problem:kreska pseudotaktowa	!
1G\	-um
2E\	nun-
2C/	.
=24-	=24-
2F\	-quam
2.D\	au-
4E\	.
!LO:TX:t=P:problem:kreska pseudotaktowa	!
2F\	.
=25-	=25-
2.E\	.
4E\	-di-
!LO:TX:t=P:problem:kreska pseudotaktowa	!
1D\	-tum.
!!LO:LB:g=original
=26-	=26-
1r	.
2r	.
1D\	nun-
=27-	=27-
.	.
2C/	-quam
2BB-X/	au-
2GG/	.
=28-	=28-
2AA/	-di-
2D;/	-tum.
=29||-	=29||-
*M2/1	*
*met(c|)	*
2.D\	Fi-
4E\	.
2F\	.
2G\	.
=30-	=30-
2.A\	.
4A\	-li-
!LO:TX:t=P:problem:kreska pseudotaktowa	!
1G\	-um
=31-	=31-
1A\	al-
1D\	.
=32-	=32-
1E\	-tis-
1AA/	.
=33-	=33-
2.AA/	.
4AA/	-si-
!LO:TX:t=P:problem:kreska pseudotaktowa	!
1D\	-mi
=34-	=34-
2r	.
2F\	et
2G\	Re-
2A\	.
=35-	=35-
!LO:SIC:v:custos:A	!
2F\	-gis
!!LO:LB:g=original
1A\	quam
4G\	.
4F\	ma-
=36-	=36-
2.E\	.
4E\	-xi-
2D/	-mi
1BB-X/	De-
=37-	=37-
.	.
2AA/	.
!LO:TX:t=P:problem:kreska pseudotaktowa	!
1GG/	-um
=38-	=38-
4FF/	et
4GG/	.
4AA/	.
4BB/	.
2C/	.
4GG/	Ho-
4AA/	.
=39-	=39-
4BB-X/	.
4C/	.
4D/	.
!LO:TX:t=P:problem:kreska pseudotaktowa	!
4C/	.
4AA/	.
4BBn/	.
2C/	.
=40-	=40-
2.AA/	.
4AA/	-mi-
1D\;	-ne.
=41||-	=41||-
*M2/1	*
*met(c|)	*
1.D\	Et
2C/	lux
=42-	=42-
2BB-X/	Be-
2GG/	-a-
2C/	.
2FF/	.
!!LO:LB:g=original
=43-	=43-
2.C/	-tiſ-
4C/	-si-
!LO:TX:t=P:problem:kreska pseudotaktowa	!
1F\	-ma
=44-	=44-
1r	.
2r	.
!LO:TX:t=P:problem:kreska pseudotaktowa	!
2F\	Be-
=45-	=45-
2.F\	-a-
4E\	.
2D\	.
2BB/	.
=46-	=46-
2.C/	tiſ-
4C/	-si-
!LO:TX:t=P:problem:ozdobna ligatura	!
[2F\	-ma
!LO:TX:t=P:problem:kreska pseudotaktowa	!
2F\]	.
=47-	=47-
2D\	tu-
2E\	-i
1F\	cor-
=48-	=48-
!LO:TX:t=P:problem:kreska pseudotaktowa	!
1E\	-dis
2D/	in-
2C/	.
=49-	=49-
2.D/	-ti-
4D/	-ma
!LO:TX:t=P:problem:kreska pseudotaktowa	!
1C/	.
=50-	=50-
2FF/	o-
2BB/	-bum-
2AA/	-bra-
!LO:TX:t=P:problem:kreska pseudotaktowa	!
2BB/	-bit
!!LO:LB:g=original
=51-	=51-
2GG/	o-
2C/	-bum-
2AA/	-bra-
2D/	.
=52-	=52-
2GG/	-bit
1C/	vi-
4BB/	.
!LO:TX:t=P:problem:kreska pseudotaktowa	!
4AA/	.
=53-	=53-
4GG/	.
4AA/	.
4BB/	.
4C/	.
2D/	-sce-
2BB/	.
=54-	=54-
1AA/;	-ra
=55||-	=55||-
*M2/1	*
*met(c|)	*
2.D\	Quem
4E\	.
2F\	.
2G\	.
=56-	=56-
1E\	no-
!LO:TX:t=P:problem:kreska pseudotaktowa	!
1D\	-bis
=57-	=57-
2r	.
2C/	con-
2D/	-ci-
2E/	-li-
=58-	=58-
2F\	-a
1D\	gra-
2C/	-ti-
!!LO:LB:g=original
=59-	=59-
2BB/	-am
2GG/	ave
2AA/	im-
2FF/	-pet-
=60-	=60-
!LO:TX:t=P:problem:kreska pseudotaktowa	!
1C/	-ra
2r	.
2AA/	im-
=61-	=61-
2D/	.
1BB/	-pet-
2C/	.
=62-	=62-
!LO:TX:t=P:problem:kreska pseudotaktowa	!
1FF/	-ra
!LO:TX:t=3	!
0r	.
=63-	=63-
.	.
1r	.
=64-	=64-
1BB/	Mi-
1C/	-se-
=65-	=65-
!LO:TX:t=P:problem:kreska pseudotaktowa	!
1D\	-ris
1GG/	mor-
=66-	=66-
2AA/	.
2BB/	.
1C/	.
=67-	=67-
2BB/	.
2GG/	.
2.AA/	-ta-
4AA/	-li-
=68-	=68-
!LO:TX:t=P:problem:kreska pseudotaktowa	!
1D\	-bus
!LO:SIC:o:s:v=2r	!
1r	.
=69-	=69-
2GG/	al-
2.BB/	-le-
4AA/	.
2GG/	.
=70-	=70-
2FF/	.
1GG/	-lu-
!LO:TX:t=P:problem:terminal long (patrz http://git.nifc.pl/transkrypcje/popc2-transkrypcje/issues/297#issuecomment-3240)	!
00D;\	-ia
=-	=-
*-	*-
!!!EED: Leszek Kubiak
!!!EST: 2021-03-04
!!!AIN: 1 vox
!!!ENC: Kamil Watkowski
!!!END: 2021-02-19
